dist/img/svg/i-mail.svg

<svg width="24" height="24" viewBox="0 0 24 24" fill="none" xmlns="http://www.w3.org/2000/svg">
<path d="M4 4C2.895 4 2 4.895 2 6V18C2 19.105 2.895 20 4 20H20C21.105 20 22 19.105 22 18V6C22 4.895 21.105 4 20 4H4ZM4 6H20V7.00195L12 12L4 7.00195V6ZM4 9.00195L12 14L20 9.00195V18H4V9.00195Z" fill="white"/>
</svg>

<svg width="24" height="24" viewBox="0 0 24 24" fill="none" xmlns="http://www.w3.org/2000/svg"><path d="M4 4a2 2 0 00-2 2v12a2 2 0 002 2h16a2 2 0 002-2V6a2 2 0 00-2-2H4zm0 2h16v1.002L12 12 4 7.002V6zm0 3.002L12 14l8-4.998V18H4V9.002z" fill="#fff"/></svg>
